docs/avito.svg

<?xml version="1.0" encoding="UTF-8" standalone="no"?>
<svg width="105px" height="40px" viewBox="0 0 105 40" version="1.1" xmlns="http://www.w3.org/2000/svg" xmlns:xlink="http://www.w3.org/1999/xlink">
    <g id="Page-1" stroke="none" stroke-width="1" fill="none" fill-rule="evenodd">
        <g id="Avito">
            <g id="text-+-circles" transform="translate(4.000000, 12.000000)">
                <g id="text" transform="translate(32.844453, 4.062942)" fill="#000000">
                    <path d="M55.6174117,16.3720246 C53.6351002,16.3720246 52.0285316,14.7778709 52.0285316,12.8115284 C52.0285316,10.8468327 53.6351002,9.25234964 55.6174117,9.25234964 C57.6003726,9.25234964 59.2062918,10.8468327 59.2062918,12.8115284 C59.2062918,14.7778709 57.6003726,16.3720246 55.6174117,16.3720246 M55.6174117,5.84007018 C51.7635306,5.84007018 48.6377527,8.94076505 48.6377527,12.7631109 C48.6377527,16.5867742 51.7635306,19.686481 55.6174117,19.686481 C59.4699937,19.686481 62.5957716,16.5867742 62.5957716,12.7631109 C62.5957716,8.94076505 59.4699937,5.84007018 55.6174117,5.84007018" id="o"></path>
                    <path d="M47.4631098,9.08996993 L47.4631098,6.17767505 L43.2032835,6.17767505 L43.2032835,2.5322012 L39.6491523,2.5322012 L39.6491523,6.17767505 L36.8374136,6.17767505 L36.8374136,9.08996993 L39.6491523,9.08996993 L39.6491523,14.7755653 C39.6491523,17.7082812 41.0952914,19.6657307 44.7867944,19.6657307 C46.2124739,19.6657307 47.4631098,19.1347852 47.4631098,19.1347852 L47.0315088,16.2814477 C47.0315088,16.2814477 46.3313346,16.4935624 45.4707308,16.4935624 C44.4159229,16.4935624 43.2032835,16.0324435 43.2032835,14.5532401 L43.2032835,9.08996993 L47.4631098,9.08996993" id="t"></path>
                    <g id="i" transform="translate(30.851833, 0.000000)">
                        <path d="M4.57029315,2.30757045 C4.57029315,3.59178644 3.54341424,4.6319388 2.27686529,4.6319388 C1.01226489,4.6319388 -0.0136397579,3.59178644 -0.0136397579,2.30757045 C-0.0136397579,1.0230251 1.01226489,-0.0171272714 2.27686529,-0.0171272714 C3.54341424,-0.0171272714 4.57029315,1.0230251 4.57029315,2.30757045" id="i-dot"></path>
                        <path d="M0.499474942,6.17767505 L4.05522991,6.17767505 L4.05522991,19.3926824 L0.499474942,19.3926824 L0.499474942,6.17767505 Z"></path>
                    </g>
                    <path d="M26.3081701,6.17767505 L22.82581,15.7936498 L19.3440994,6.17767505 L15.7880197,6.17767505 L20.5758995,19.3926824 L25.0763701,19.3926824 L29.8629508,6.17767505 L26.3081701,6.17767505" id="v"></path>
                    <path d="M6.33891508,12.7855081 L8.54465878,6.69873934 L10.7481292,12.7855081 L6.33891508,12.7855081 L6.33891508,12.7855081 Z M13.1415819,19.3926824 L16.92629,19.3926824 L9.91707823,0.036560137 L7.17191458,0.036560137 L0.161403801,19.3926824 L3.9464366,19.3926824 L5.28508141,15.697803 L11.8026124,15.697803 L13.1415819,19.3926824 L13.1415819,19.3926824 Z" id="a"></path>
                </g>
                <g id="circles" transform="translate(0.000000, 0.065785)">
                    <ellipse id="bottomright" fill="#97CF26" cx="19.7405432" cy="19.9880991" rx="7.29077533" ry="7.39437006"></ellipse>
                    <ellipse id="bottomleft" fill="#CF6CF7" cx="6.03583388" cy="19.9880991" rx="3.39370166" ry="3.44192281"></ellipse>
                    <ellipse id="topright" fill="#FF6163" cx="19.7405432" cy="6.0886601" rx="4.69272621" ry="4.75940523"></ellipse>
                    <ellipse id="topleft" fill="#00AAFF" cx="6.03583388" cy="6.08866007" rx="5.99175077" ry="6.07688764"></ellipse>
                </g>
            </g>
            <path d="M24.5771484,3.70800781 C24.5771484,3.50976463 24.5264491,3.3531093 24.4250488,3.23803711 C24.3236486,3.12296492 24.1419284,3.01074273 23.8798828,2.90136719 C23.3694636,2.72135327 22.9855156,2.5174165 22.7280273,2.28955078 C22.4705391,2.06168506 22.3417969,1.74267783 22.3417969,1.33251953 C22.3417969,0.924639888 22.4887681,0.592530579 22.7827148,0.336181641 C23.0766616,0.0798327026 23.4514951,-0.0483398438 23.9072266,-0.0483398438 C24.3903019,-0.0483398438 24.7788071,0.0883775391 25.0727539,0.361816406 C25.3667007,0.635255273 25.5091146,1.00211358 25.5,1.46240234 L25.4931641,1.48291016 L24.5566406,1.48291016 C24.5566406,1.22542189 24.4991054,1.03002996 24.3840332,0.896728516 C24.268961,0.763427068 24.1043305,0.696777344 23.8901367,0.696777344 C23.7055655,0.696777344 23.5620122,0.75773051 23.4594727,0.879638672 C23.3569331,1.00154683 23.3056641,1.15364492 23.3056641,1.3359375 C23.3056641,1.50455813 23.363769,1.64355414 23.4799805,1.75292969 C23.596192,1.86230523 23.7955715,1.98193294 24.078125,2.11181641 C24.5589217,2.27132241 24.9229317,2.47298055 25.170166,2.71679688 C25.4174003,2.9606132 25.5410156,3.28873492 25.5410156,3.70117188 C25.5410156,4.12728078 25.3963231,4.46223836 25.1069336,4.70605469 C24.8175441,4.94987101 24.4335961,5.07177734 23.9550781,5.07177734 C23.4833961,5.07177734 23.0800798,4.94018686 22.7451172,4.67700195 C22.4101546,4.41381704 22.2483723,4.01334904 22.2597656,3.47558594 L22.2666016,3.45507812 L23.206543,3.45507812 C23.206543,3.76725417 23.2697748,3.99169854 23.3962402,4.12841797 C23.5227057,4.2651374 23.7089831,4.33349609 23.9550781,4.33349609 C24.1624359,4.33349609 24.317952,4.27653052 24.4216309,4.16259766 C24.5253098,4.04866479 24.5771484,3.89713636 24.5771484,3.70800781 L24.5771484,3.70800781 Z M28.5303711,3.19873047 L28.5303711,5 L27.5665039,5 L27.5665039,0.0234375 L29.2310547,0.0234375 C29.7300806,0.0234375 30.1254217,0.169839031 30.4170898,0.462646484 C30.7087579,0.755453938 30.8545898,1.13883227 30.8545898,1.61279297 C30.8545898,2.08903233 30.7087579,2.47241066 30.4170898,2.76293945 C30.1254217,3.05346825 29.7300806,3.19873047 29.2310547,3.19873047 L28.5303711,3.19873047 Z M28.5303711,2.44335938 L29.2310547,2.44335938 C29.4475271,2.44335938 29.6121576,2.36588619 29.7249511,2.2109375 C29.8377447,2.05598881 29.8941406,1.85888792 29.8941406,1.61962891 C29.8941406,1.37581258 29.8377447,1.1747241 29.7249511,1.01635742 C29.6121576,0.857990745 29.4475271,0.778808594 29.2310547,0.778808594 L28.5303711,0.778808594 L28.5303711,2.44335938 Z M36.4005859,3.20898438 C36.4005859,3.79459928 36.2353857,4.2514632 35.9049804,4.57958984 C35.5745751,4.90771648 35.1348009,5.07177734 34.5856445,5.07177734 C34.0364881,5.07177734 33.5978532,4.90771648 33.2697265,4.57958984 C32.9415999,4.2514632 32.777539,3.79459928 32.777539,3.20898438 L32.777539,1.82128906 C32.777539,1.23795281 32.9410302,0.780519236 33.2680175,0.448974609 C33.5950048,0.117429983 34.0330701,-0.0483398438 34.5822265,-0.0483398438 C35.1313829,-0.0483398438 35.5717268,0.117429983 35.9032714,0.448974609 C36.2348161,0.780519236 36.4005859,1.23795281 36.4005859,1.82128906 L36.4005859,3.20898438 Z M35.4401367,1.81103516 C35.4401367,1.44872866 35.3666511,1.17529389 35.2196777,0.990722656 C35.0727043,0.806151421 34.8602227,0.713867188 34.5822265,0.713867188 C34.3019517,0.713867188 34.091179,0.805581765 33.9499023,0.989013672 C33.8086255,1.17244558 33.7379882,1.44645 33.7379882,1.81103516 L33.7379882,3.20898438 C33.7379882,3.57812685 33.8091952,3.85497955 33.9516113,4.03955078 C34.0940274,4.22412202 34.3053696,4.31640625 34.5856445,4.31640625 C34.8659193,4.31640625 35.0784009,4.22412202 35.2230957,4.03955078 C35.3677904,3.85497955 35.4401367,3.57812685 35.4401367,3.20898438 L35.4401367,1.81103516 Z M42.0012695,5 L41.0374023,5 L39.4583007,1.82470703 L39.4377929,1.828125 L39.4377929,5 L38.4739257,5 L38.4739257,0.0234375 L39.4377929,0.0234375 L41.0168945,3.20214844 L41.0374023,3.19873047 L41.0374023,0.0234375 L42.0012695,0.0234375 L42.0012695,5 Z M46.3612304,3.70800781 C46.3612304,3.50976463 46.310531,3.3531093 46.2091308,3.23803711 C46.1077305,3.12296492 45.9260103,3.01074273 45.6639647,2.90136719 C45.1535455,2.72135327 44.7695975,2.5174165 44.5121093,2.28955078 C44.254621,2.06168506 44.1258788,1.74267783 44.1258788,1.33251953 C44.1258788,0.924639888 44.27285,0.592530579 44.5667968,0.336181641 C44.8607436,0.0798327026 45.2355771,-0.0483398438 45.6913085,-0.0483398438 C46.1743838,-0.0483398438 46.5628891,0.0883775391 46.8568358,0.361816406 C47.1507826,0.635255273 47.2931966,1.00211358 47.2840819,1.46240234 L47.277246,1.48291016 L46.3407226,1.48291016 C46.3407226,1.22542189 46.2831873,1.03002996 46.1681151,0.896728516 C46.0530429,0.763427068 45.8884124,0.696777344 45.6742187,0.696777344 C45.4896474,0.696777344 45.3460942,0.75773051 45.2435546,0.879638672 C45.141015,1.00154683 45.089746,1.15364492 45.089746,1.3359375 C45.089746,1.50455813 45.1478509,1.64355414 45.2640624,1.75292969 C45.3802739,1.86230523 45.5796534,1.98193294 45.8622069,2.11181641 C46.3430036,2.27132241 46.7070136,2.47298055 46.954248,2.71679688 C47.2014823,2.9606132 47.3250976,3.28873492 47.3250976,3.70117188 C47.3250976,4.12728078 47.180405,4.46223836 46.8910155,4.70605469 C46.6016261,4.94987101 46.2176781,5.07177734 45.7391601,5.07177734 C45.267478,5.07177734 44.8641617,4.94018686 44.5291991,4.67700195 C44.1942365,4.41381704 44.0324543,4.01334904 44.0438476,3.47558594 L44.0506835,3.45507812 L44.9906249,3.45507812 C44.9906249,3.76725417 45.0538567,3.99169854 45.1803222,4.12841797 C45.3067876,4.2651374 45.4930651,4.33349609 45.7391601,4.33349609 C45.9465179,4.33349609 46.1020339,4.27653052 46.2057128,4.16259766 C46.3093917,4.04866479 46.3612304,3.89713636 46.3612304,3.70800781 L46.3612304,3.70800781 Z M52.8813475,3.20898438 C52.8813475,3.79459928 52.7161474,4.2514632 52.3857421,4.57958984 C52.0553368,4.90771648 51.6155625,5.07177734 51.0664061,5.07177734 C50.5172497,5.07177734 50.0786148,4.90771648 49.7504882,4.57958984 C49.4223615,4.2514632 49.2583007,3.79459928 49.2583007,3.20898438 L49.2583007,1.82128906 C49.2583007,1.23795281 49.4217919,0.780519236 49.7487792,0.448974609 C50.0757665,0.117429983 50.5138318,-0.0483398438 51.0629882,-0.0483398438 C51.6121446,-0.0483398438 52.0524885,0.117429983 52.3840331,0.448974609 C52.7155777,0.780519236 52.8813475,1.23795281 52.8813475,1.82128906 L52.8813475,3.20898438 Z M51.9208983,1.81103516 C51.9208983,1.44872866 51.8474127,1.17529389 51.7004393,0.990722656 C51.5534659,0.806151421 51.3409843,0.713867188 51.0629882,0.713867188 C50.7827133,0.713867188 50.5719407,0.805581765 50.4306639,0.989013672 C50.2893872,1.17244558 50.2187499,1.44645 50.2187499,1.81103516 L50.2187499,3.20898438 C50.2187499,3.57812685 50.2899569,3.85497955 50.4323729,4.03955078 C50.574789,4.22412202 50.7861313,4.31640625 51.0664061,4.31640625 C51.346681,4.31640625 51.5591626,4.22412202 51.7038573,4.03955078 C51.848552,3.85497955 51.9208983,3.57812685 51.9208983,3.20898438 L51.9208983,1.81103516 Z M55.9185545,3.00390625 L55.9185545,5 L54.9546874,5 L54.9546874,0.0268554688 L56.4449217,0.0268554688 C56.9393904,0.0268554688 57.3284652,0.155597671 57.6121581,0.413085938 C57.8958509,0.670574204 58.0376952,1.02945733 58.0376952,1.48974609 C58.0376952,1.74723436 57.9778813,1.97053942 57.8582518,2.15966797 C57.7386223,2.34879652 57.5660166,2.49918564 57.3404295,2.61083984 C57.6001965,2.69742882 57.7870436,2.84098207 57.9009764,3.04150391 C58.0149093,3.24202574 58.0718749,3.49267428 58.0718749,3.79345703 L58.0718749,4.15576172 C58.0718749,4.29475981 58.0878252,4.44059168 58.1197264,4.59326172 C58.1516276,4.74593175 58.2085932,4.85758428 58.2906249,4.92822266 L58.2906249,5 L57.292578,5 C57.212825,4.92708297 57.1621256,4.80802491 57.1404784,4.64282227 C57.1188311,4.47761962 57.1080077,4.3129891 57.1080077,4.14892578 L57.1080077,3.80029297 C57.1080077,3.54736202 57.0555993,3.35140043 56.9507811,3.21240234 C56.8459629,3.07340425 56.6955738,3.00390625 56.4996092,3.00390625 L55.9185545,3.00390625 Z M55.9185545,2.25195312 L56.4380858,2.25195312 C56.6454436,2.25195312 56.8032382,2.18986065 56.9114745,2.06567383 C57.0197107,1.94148701 57.073828,1.76546338 57.073828,1.53759766 C57.073828,1.30517462 57.0202803,1.12060615 56.9131835,0.983886719 C56.8060866,0.847167285 56.6500009,0.778808594 56.4449217,0.778808594 L55.9185545,0.778808594 L55.9185545,2.25195312 Z M62.7018553,2.80224609 L61.1808592,2.80224609 L61.1808592,4.24804688 L63.0026366,4.24804688 L63.0026366,5 L60.216992,5 L60.216992,0.0234375 L62.9958006,0.0234375 L62.9958006,0.778808594 L61.1808592,0.778808594 L61.1808592,2.05029297 L62.7018553,2.05029297 L62.7018553,2.80224609 Z M65.0144529,5 L65.0144529,0.0234375 L66.5491209,0.0234375 C67.0686548,0.0234375 67.4981752,0.217690115 67.8376951,0.606201172 C68.177215,0.994712229 68.3469725,1.49316102 68.3469725,2.1015625 L68.3469725,2.92529297 C68.3469725,3.53597311 68.177215,4.0344219 67.8376951,4.4206543 C67.4981752,4.8068867 67.0686548,5 66.5491209,5 L65.0144529,5 Z M65.9783201,0.778808594 L65.9783201,4.24804688 L66.5491209,4.24804688 C66.7974945,4.24804688 66.9980134,4.12500123 67.1506834,3.87890625 C67.3033534,3.63281127 67.3796873,3.31494335 67.3796873,2.92529297 L67.3796873,2.09472656 C67.3796873,1.70963349 67.3033534,1.3940442 67.1506834,1.14794922 C66.9980134,0.901854238 66.7974945,0.778808594 66.5491209,0.778808594 L65.9783201,0.778808594 Z M73.3720701,5 L73.3720701,0.0234375 L74.797363,0.0234375 C75.3168969,0.0234375 75.7213525,0.136798997 76.0107419,0.363525391 C76.3001314,0.590251785 76.444824,0.929196963 76.444824,1.38037109 C76.444824,1.61507279 76.391846,1.82413645 76.2858884,2.00756836 C76.1799309,2.19100027 76.0232755,2.32714799 75.8159177,2.41601562 C76.0939139,2.47298206 76.300699,2.6062815 76.4362791,2.81591797 C76.5718592,3.02555443 76.6396482,3.27050641 76.6396482,3.55078125 C76.6396482,4.02702061 76.5012218,4.38761271 76.224365,4.63256836 C75.9475081,4.87752401 75.5527367,5 75.0400388,5 L73.3720701,5 Z M74.3359373,2.79541016 L74.3359373,4.24804688 L75.0400388,4.24804688 C75.2496753,4.24804688 75.4080396,4.18937233 75.5151365,4.07202148 C75.6222334,3.95467064 75.675781,3.78092563 75.675781,3.55078125 C75.675781,3.3138009 75.6267906,3.13037174 75.5288084,3.00048828 C75.4308261,2.87060482 75.2781584,2.80224613 75.0708005,2.79541016 L75.0366209,2.79541016 L74.3359373,2.79541016 Z M74.3359373,2.12890625 L74.8417966,2.12890625 C75.0491544,2.12434894 75.2075187,2.06624405 75.3168943,1.95458984 C75.4262698,1.84293564 75.4809568,1.6811534 75.4809568,1.46923828 C75.4809568,1.23225793 75.4239912,1.05794327 75.3100584,0.946289062 C75.1961255,0.834634858 75.0252288,0.778808594 74.797363,0.778808594 L74.3359373,0.778808594 L74.3359373,2.12890625 Z M80.2305661,2.18701172 L80.251074,2.18701172 L81.1089841,0.0234375 L82.1617185,0.0234375 L80.7090818,3.22607422 L80.7090818,5 L79.7486326,5 L79.7486326,3.16455078 L78.3233396,0.0234375 L79.376074,0.0234375 L80.2305661,2.18701172 Z" id="SPONSORED-BY" fill="#191919" opacity="0.7"></path>
        </g>
    </g>
</svg>

<svg width="105" height="40" viewBox="0 0 105 40" xmlns="http://www.w3.org/2000/svg"><g fill="none" fill-rule="evenodd"><g fill="#000"><path d="M92.462 32.435c-1.982 0-3.59-1.594-3.59-3.56 0-1.965 1.608-3.56 3.59-3.56 1.983 0 3.59 1.595 3.59 3.56 0 1.966-1.607 3.56-3.59 3.56m0-10.532c-3.854 0-6.98 3.1-6.98 6.923 0 3.824 3.126 6.923 6.98 6.923 3.852 0 6.978-3.1 6.978-6.924 0-3.822-3.126-6.923-6.978-6.923M84.308 25.153V22.24h-4.26v-3.645h-3.554v3.646h-2.812v2.913h2.812v5.686c0 2.93 1.446 4.89 5.137 4.89 1.427 0 2.678-.532 2.678-.532l-.432-2.854s-.7.213-1.56.213c-1.056 0-2.268-.462-2.268-1.94v-5.464h4.26M72.267 18.37c0 1.285-1.027 2.325-2.294 2.325-1.264 0-2.29-1.04-2.29-2.324 0-1.284 1.026-2.324 2.29-2.324 1.267 0 2.294 1.04 2.294 2.325M68.196 22.24h3.556v13.216h-3.556V22.24zM63.153 22.24l-3.483 9.617-3.48-9.616H52.63l4.788 13.216h4.5l4.787-13.215h-3.554M43.183 28.848l2.206-6.086 2.203 6.086h-4.41zm6.803 6.608h3.785L46.763 16.1h-2.746l-7.01 19.356h3.785l1.34-3.695h6.517l1.34 3.696z"/></g><g transform="translate(4 12.066)"><ellipse fill="#97CF26" cx="19.741" cy="19.988" rx="7.291" ry="7.394"/><ellipse fill="#CF6CF7" cx="6.036" cy="19.988" rx="3.394" ry="3.442"/><ellipse fill="#FF6163" cx="19.741" cy="6.089" rx="4.693" ry="4.759"/><ellipse fill="#0AF" cx="6.036" cy="6.089" rx="5.992" ry="6.077"/></g><path d="M24.577 3.708c0-.198-.05-.355-.152-.47-.1-.115-.283-.227-.545-.337-.51-.18-.894-.383-1.152-.61-.257-.228-.386-.547-.386-.957 0-.408.147-.74.44-.997.295-.256.67-.384 1.125-.384.483 0 .872.136 1.166.41.294.273.436.64.427 1.1l-.007.02h-.936c0-.257-.058-.452-.173-.585-.115-.134-.28-.2-.494-.2-.184 0-.328.06-.43.183-.103.122-.154.274-.154.456 0 .17.058.308.174.417.116.11.316.23.598.36.48.158.845.36 1.092.604.247.244.37.572.37.984 0 .427-.144.762-.433 1.006-.29.244-.673.366-1.152.366-.472 0-.875-.132-1.21-.395-.335-.263-.497-.664-.485-1.2l.007-.022h.94c0 .312.063.537.19.673.126.137.312.205.558.205.207 0 .363-.056.467-.17.103-.114.155-.266.155-.455zm3.953-.51V5h-.963V.023h1.664c.5 0 .895.147 1.187.44.292.292.438.676.438 1.15 0 .476-.146.86-.438 1.15-.292.29-.687.436-1.186.436h-.7zm0-.755h.7c.218 0 .382-.077.495-.232.113-.154.17-.35.17-.59 0-.244-.057-.445-.17-.604-.113-.158-.277-.237-.494-.237h-.7v1.663zm7.87.766c0 .585-.165 1.04-.495 1.37-.33.328-.77.492-1.32.492s-.987-.164-1.315-.492c-.328-.33-.492-.785-.492-1.37V1.82c0-.582.163-1.04.49-1.37.327-.333.765-.498 1.314-.498.55 0 .99.165 1.32.497.333.33.5.788.5 1.37v1.39zm-.96-1.4c0-.36-.073-.635-.22-.82-.147-.184-.36-.276-.638-.276-.28 0-.49.092-.632.275-.14.182-.212.456-.212.82v1.4c0 .368.07.645.214.83.142.184.353.276.634.276.28 0 .492-.092.637-.276.145-.185.217-.462.217-.83v-1.4zM42 5h-.963l-1.58-3.175-.02.003V5h-.963V.023h.964l1.58 3.18.02-.004V.022H42V5zm4.36-1.292c0-.198-.05-.355-.15-.47-.102-.115-.284-.227-.546-.337-.51-.18-.894-.383-1.152-.61-.257-.228-.386-.547-.386-.957 0-.408.147-.74.44-.997.295-.256.67-.384 1.125-.384.484 0 .873.136 1.167.41.294.273.436.64.427 1.1l-.007.02h-.936c0-.257-.057-.452-.172-.585-.115-.134-.28-.2-.494-.2-.184 0-.328.06-.43.183-.103.122-.154.274-.154.456 0 .17.058.308.174.417.116.11.316.23.598.36.48.158.845.36 1.092.604.247.244.37.572.37.984 0 .427-.144.762-.433 1.006-.288.244-.672.366-1.15.366-.473 0-.876-.132-1.21-.395-.336-.263-.498-.664-.486-1.2l.007-.022h.94c0 .312.064.537.19.673.127.137.313.205.56.205.207 0 .362-.056.466-.17.103-.114.155-.266.155-.455zm6.52-.5c0 .587-.164 1.043-.494 1.372-.33.328-.77.492-1.32.492s-.987-.164-1.316-.492c-.328-.33-.492-.785-.492-1.37V1.82c0-.582.164-1.04.49-1.37.328-.333.766-.498 1.315-.498.55 0 .99.165 1.32.497.333.33.498.788.498 1.37v1.39zm-.96-1.397c0-.36-.073-.635-.22-.82-.147-.184-.36-.276-.637-.276-.28 0-.49.092-.632.275-.14.182-.21.456-.21.82v1.4c0 .368.07.645.212.83.143.184.354.276.634.276s.493-.092.638-.276c.145-.185.217-.462.217-.83v-1.4zm4 1.194V5h-.965V.027h1.49c.494 0 .883.13 1.167.386.284.258.426.616.426 1.077 0 .257-.06.48-.18.67-.12.19-.292.34-.518.45.26.087.447.23.56.432.115.2.172.45.172.75v.364c0 .14.016.285.048.437.032.153.09.265.17.335V5h-.997c-.08-.073-.13-.192-.153-.357-.02-.165-.032-.33-.032-.494V3.8c0-.253-.052-.45-.157-.588-.104-.14-.254-.208-.45-.208h-.58zm0-.752h.518c.207 0 .365-.062.473-.186.11-.125.164-.3.164-.528 0-.233-.054-.417-.16-.554-.108-.137-.264-.205-.47-.205h-.525V2.25zm6.782.55h-1.52v1.446H63V5h-2.785V.023h2.78V.78H61.18v1.27h1.522v.752zM65.014 5V.023h1.535c.52 0 .948.195 1.288.583.34.39.51.887.51 1.496v.823c0 .61-.17 1.11-.51 1.496-.34.387-.77.58-1.29.58h-1.534zm.964-4.22v3.468h.57c.25 0 .45-.123.603-.37.153-.245.23-.563.23-.953v-.83c0-.385-.077-.7-.23-.947-.152-.246-.353-.37-.6-.37h-.572zM73.372 5V.023h1.425c.52 0 .924.114 1.214.34.29.227.435.566.435 1.017 0 .235-.053.444-.16.628-.105.183-.262.32-.47.408.28.057.486.19.62.4.137.21.205.455.205.735 0 .477-.14.838-.416 1.083-.276.245-.67.367-1.184.367h-1.668zm.964-2.205v1.453h.704c.21 0 .368-.06.475-.176.107-.117.16-.29.16-.52 0-.238-.048-.422-.146-.552-.1-.13-.252-.198-.46-.205h-.733zm0-.666h.506c.207-.006.366-.064.475-.175.11-.112.164-.274.164-.486 0-.238-.056-.412-.17-.524-.114-.11-.285-.167-.513-.167h-.46v1.35zm5.895.057h.02l.86-2.164h1.052L80.71 3.226V5h-.96V3.165L78.322.023h1.053l.855 2.164z" fill="#191919" opacity=".7"/></g></svg>
